X:1
T:A Town with an Ocean view
N:https://www.youtube.com/watch?v=CvRC2LUCNtc
C:Joe Hisaishi
M:4/4
L:1/8
Q:1/4=98
K:F
z4 z2 zA|f3 Ae3 A|d2 cB c3 F|G.B.df e.c.AG|
A2.G.F EF.G.A|f3 A e3 A|d2 cB c3 A|G.B.d.f g.a.e.c|
d.A.F.E .D2 z2|
